X:2100
T:Greenwoodside
M:2/4
O:Scotland
R:Reel
Z:Richard Robinson 
%%TUNEURL: http://www.leeds.ac.uk/music/Info/RRTuneBk/gettune/00000931.html
%%ID:00000931
K:B min
A2 |\
B>BB>c B2A2 | B>cd>e f4 | e3f e>fe>d | c2A2 A2f2|
B2B>c B2A2  | B>cd>e f4 | e2a2 f2ef  | d2B2 B2 :|
|:d/e/ |\
f3d B2f2 | B>BB>c f4 | e3f e>fe>d | c2A2 A2de |
f3d B2f2 | B>BB>d f4 | e2a2 f2ef | d2B2 B2:|
